X:1
T:Title
%%score { 1 | ( 2 3 ) }
L:1/8
M:6/8
K:Ab
V:1 treble nm="Grand Piano"
V:2 bass 
V:3 bass 
V:1
 z3 z2[Q:1/4=90] E | [Ec]BA [FA]GF | [DF]3 E2 A | B2 E B2 _c |[M:5/8] [Ec]-[Ec]- [Ec]3 |[M:1/8] E | %6
[M:3/4] [Ec]B A[FA] GF | [DF]3 E2 A | B2 A c2 B |[M:5/8] [CA]-[CA]- [CA]3 |[M:1/8] E | %11
[M:3/4] A2 A c2 c | e3 c2 [A,EA] | B2 E B2 d |[M:5/8] c-c- c3 |[M:1/8] E | %16
[M:3/4] F2 [FA] [Ad]2 [Af] | e3 c2 [CA] | c3 A2 B |[M:5/8] [CA]-[CA]- [CA]3 |] %20
V:2
 z3 z2 C | z DC z ED | z3 C2 C | [E,G,D]2 D [E,G,D]2 =D |[M:5/8] A,3 z2 |[M:1/8] C | %6
[M:3/4] z D .C2 ED | z2 z C2 C | [E,G,D]2 C [E,G,E]2 D |[M:5/8] [A,,E,A,]-[A,,E,A,]- [A,,E,A,]3 | %10
[M:1/8] [A,C] |[M:3/4] [A,CE]2 [A,CE] [A,E]2 [A,E] | [A,C]4 z2 | [E,G,E]2 [E,G,] [E,G,E]2 [E,G,E] | %14
[M:5/8] [A,E]-[A,E]- [A,E]3 |[M:1/8] [C,A,] |[M:3/4] [D,A,D]2 [D,D] [F,D]2 [D,D] | %17
 [A,CA]3 [A,E]2[K:bass] [A,,A,] | [E,A,E]3 [E,C]2 [E,D] |[M:5/8] [A,,E,]-[A,,E,]- [A,,E,]3 |] %20
V:3
 x6 | .[A,,A,]3 .[D,A,]3 | [A,,A,]6 | x6 |[M:5/8] A,,C,E, A,2 |[M:1/8] x | %6
[M:3/4] [A,,A,]2 z .[D,A,]3 | [A,,A,]6 | x6 |[M:5/8] x5 |[M:1/8] x |[M:3/4] x6 | E3- [A,E]2 C, | %13
 x6 |[M:5/8] x5 |[M:1/8] x |[M:3/4] x6 | x5[K:bass] x | x6 |[M:5/8] x5 |] %20

